X: 13669
T: Follow Me Up To Carlow
R: reel
M: 4/4
K: Edorian
EFED B,C D2|EDEF GABA|GFGE B,C D2|1 EedB e2 e2:|2 EedB e2 EF||
|:G2 BG dGBG|FDDE FGAF|G2 BG dGBe|dBAF GE E2|
edBe dBAF|GFGE B,CD2|EDEF GABe|dBAF GE E2:|

